X: 8857
T: Culfadda, The
R: reel
M: 4/4
K: Fmajor
|:dc|AdcA GcAG|FDGF DGFD|CA,~A,2 CDFG|AF~F2 GABG|
AdcA GcAG|FDGF DGFD|CA,~A,2 CDFG|1 AcGE F2:|2 AcGE FGAB||
c3 A BAGA|FcAF GFDF|CF~F2 dFcF|BAGF DGGA|
B3d cAGF|dcde fcAF|CFAF DFBd|cAGA FGAB|
c3 A BAGA|FcAF GFDF|CF~F2 dFcF|BAGF DGGA|
BABc dcde|fcAF G2FD|CFAF DFBd|cAGA F2||

